femmes/public/img/illustrations/slide6/purple-ice-skate-up.svg

<?xml version="1.0" encoding="UTF-8" standalone="no"?>
<svg
   width="326"
   height="346"
   viewBox="0 0 326 346"
   fill="none"
   version="1.1"
   id="svg54"
   sodipodi:docname="purple-ice-skate-up.svg"
   inkscape:version="1.1.2 (0a00cf5339, 2022-02-04)"
   xmlns:inkscape="http://www.inkscape.org/namespaces/inkscape"
   xmlns:sodipodi="http://sodipodi.sourceforge.net/DTD/sodipodi-0.dtd"
   xmlns="http://www.w3.org/2000/svg"
   xmlns:svg="http://www.w3.org/2000/svg">
  <sodipodi:namedview
     id="namedview56"
     pagecolor="#ffffff"
     bordercolor="#666666"
     borderopacity="1.0"
     inkscape:pageshadow="2"
     inkscape:pageopacity="0.0"
     inkscape:pagecheckerboard="0"
     showgrid="false"
     inkscape:zoom="1.2557803"
     inkscape:cx="38.621404"
     inkscape:cy="93.965478"
     inkscape:window-width="1916"
     inkscape:window-height="1053"
     inkscape:window-x="0"
     inkscape:window-y="0"
     inkscape:window-maximized="1"
     inkscape:current-layer="svg54" />
  <path
     d="m 212.47,233.759 c 0.921,-0.003 1.846,-0.086 2.765,-0.252 4.408,-0.8 8.289,-3.454 10.649,-7.279 L 237.925,206.705 77.6981,82.2282 50.497,87.6944 c -4.4958,0.9029 -7.9406,4.2517 -8.9884,8.7379 -1.0478,4.4867 0.5532,9.0257 4.1802,11.8457 L 202.727,230.429 c 2.804,2.182 6.245,3.339 9.743,3.33 z m 21.074,-26.257 -10.47,16.974 c -1.867,3.028 -4.938,5.128 -8.427,5.76 -3.488,0.632 -7.095,-0.254 -9.898,-2.434 L 47.7108,105.651 c -2.5894,-2.015 -3.7325,-5.257 -2.9847,-8.4596 0.7487,-3.2039 3.2076,-5.5957 6.419,-6.2403 l 25.7235,-5.1692 z"
     fill="#000000"
     id="path2" />
  <path
     d="m 208.111,208.568 c 0.748,-0.002 1.497,-0.07 2.243,-0.205 3.577,-0.649 6.725,-2.802 8.64,-5.905 L 228.663,186.78 101.817,88.2355 80.19,92.5809 c -3.6847,0.7405 -6.5072,3.4846 -7.3662,7.1613 -0.859,3.6758 0.454,7.3948 3.4251,9.7068 l 123.9551,96.418 c 2.275,1.769 5.067,2.708 7.905,2.701 z m 16.173,-20.992 -8.1,13.13 c -1.422,2.305 -3.76,3.905 -6.417,4.387 -2.656,0.482 -5.403,-0.194 -7.538,-1.854 L 78.2734,106.821 c -1.9344,-1.505 -2.7894,-3.926 -2.2304,-6.321 0.5599,-2.3931 2.3973,-4.1795 4.7959,-4.6625 l 20.1491,-4.0483 z"
     fill="#000000"
     id="path4" />
  <path
     d="M 253.007,13.4545 194.316,85.0082 115.187,57.1636 C 104.28,53.3248 92.152,56.9354 85.0832,66.1259 L 71.7594,83.4499 235.182,210.41 338.96,80.2307 Z"
     fill="#554596"
     id="path6" />
  <mask
     id="mask0_382_305"
     maskUnits="userSpaceOnUse"
     x="83"
     y="13"
     width="268"
     height="198">
    <path
       d="M 265.007,13.4545 206.316,85.0082 127.187,57.1636 C 116.28,53.3248 104.152,56.9354 97.0832,66.1259 L 83.7594,83.4499 247.182,210.41 350.96,80.2307 Z"
       fill="#ffffff"
       id="path8" />
  </mask>
  <g
     mask="url(#mask0_382_305)"
     id="g39"
     transform="translate(-12)">
    <path
       d="M 90.0122,68.7442 276.073,196.965 274.204,199.705 88.1429,71.4842 Z"
       fill="#000000"
       id="path11" />
    <path
       d="m 129.748,44.2221 19.925,27.4512 67.066,41.0907 82.447,-76.7636"
       fill="#554596"
       id="path13" />
    <path
       d="m 216.946,114.836 83.363,-77.6168 -2.247,-2.4377 -81.53,75.9105 -65.718,-40.265 -19.732,-27.1835 -2.67,1.9571 20.12,27.7191 z"
       fill="#000000"
       id="path15" />
    <path
       d="m 175.341,71.1845 4.111,32.2385 -3.279,0.422 -4.11,-32.2383 z"
       fill="#000000"
       id="path17" />
    <path
       d="m 192.274,67.5443 5.837,45.7797 -3.279,0.422 -5.837,-45.7794 z"
       fill="#000000"
       id="path19" />
    <path
       d="m 202.343,59.6874 20.188,65.0136 -3.155,0.989 -20.188,-65.0129 z"
       fill="#000000"
       id="path21" />
    <path
       d="m 202.334,56.3996 43.143,52.5194 -2.55,2.116 -43.142,-52.5197 z"
       fill="#000000"
       id="path23" />
    <path
       d="m 212.068,36.7268 43.143,52.5199 -2.55,2.1151 -43.142,-52.5198 z"
       fill="#000000"
       id="path25" />
    <path
       d="m 226.826,21.8178 43.142,52.5199 -2.549,2.1152 -43.142,-52.5199 z"
       fill="#000000"
       id="path27" />
    <path
       d="m 241.608,6.88338 43.143,52.51982 -2.55,2.1152 -43.142,-52.51983 z"
       fill="#000000"
       id="path29" />
    <path
       d="m 242.102,111.558 c -2.367,0.007 -4.29,-1.917 -4.297,-4.296 -0.006,-2.379 1.908,-4.312 4.275,-4.318 2.367,-0.007 4.291,1.917 4.297,4.296 0.006,2.379 -1.908,4.312 -4.275,4.318 z"
       fill="#554596"
       id="path31" />
    <path
       d="m 220.031,126.742 c -2.367,0.006 -4.291,-1.918 -4.297,-4.297 -0.006,-2.379 1.908,-4.312 4.275,-4.318 2.367,-0.006 4.291,1.917 4.297,4.296 0.006,2.379 -1.908,4.312 -4.275,4.319 z"
       fill="#554596"
       id="path33" />
    <path
       d="m 196.049,114.923 c -2.367,0.006 -4.29,-1.918 -4.297,-4.297 -0.006,-2.379 1.908,-4.312 4.275,-4.318 2.367,-0.007 4.291,1.917 4.297,4.296 0.006,2.379 -1.908,4.312 -4.275,4.319 z"
       fill="#554596"
       id="path35" />
    <path
       d="m 177.435,105.163 c -2.367,0.007 -4.291,-1.917 -4.297,-4.296 -0.006,-2.3788 1.907,-4.3123 4.274,-4.3185 2.367,-0.0061 4.291,1.9174 4.297,4.2965 0.007,2.379 -1.907,4.312 -4.274,4.318 z"
       fill="#554596"
       id="path37" />
  </g>
  <g
     clip-path="url(#clip0_382_305)"
     id="g45"
     transform="translate(-12)">
    <path
       d="m 264.88,37.8536 0.381,-26.1465 c 0.067,-4.61585 -2.52,-8.59682 -6.754,-10.38903 -4.232,-1.793046 -8.875,-0.872296 -12.114,2.40038 -4.293,4.33775 -4.275,11.37785 0.041,15.69235 z M 254.121,3.75566 c 1.131,-0.00295 2.202,0.24178 3.103,0.62401 2.324,0.98402 4.788,3.41293 4.732,7.27783 L 261.688,29.9754 248.766,17.055 c -3.024,-3.023 -3.037,-7.95504 -0.029,-10.99455 1.661,-1.67797 3.598,-2.30015 5.384,-2.30479 z"
       fill="#000000"
       id="path41" />
    <path
       d="m 287.799,44.9658 c 2.802,-0.0073 5.52,-1.1149 7.651,-3.2277 3.27,-3.242 4.205,-7.9024 2.441,-12.1646 -1.134,-2.7364 -3.259,-4.8655 -5.986,-5.9955 -2.727,-1.1292 -5.728,-1.1238 -8.45,0.0145 l -24.02,10.048 23.88,10.3809 c 1.467,0.6383 2.988,0.9483 4.484,0.9444 z m -0.121,-18.9066 c 1.005,-0.0026 2.01,0.1941 2.967,0.5911 1.911,0.7916 3.399,2.2828 4.194,4.2003 1.478,3.5694 0.086,6.7425 -1.709,8.523 -1.796,1.7789 -4.972,3.1343 -8.503,1.5994 l -16.73,-7.2723 16.829,-7.0399 c 0.951,-0.3987 1.951,-0.599 2.952,-0.6016 z"
       fill="#000000"
       id="path43" />
  </g>
  <path
     d="M 0.9075,119.144 301.28,343.997 M 5.8822,100.925 179.307,230.187"
     stroke="#554596"
     stroke-width="3"
     id="path47" />
  <defs
     id="defs52">
    <clipPath
       id="clip0_382_305">
      <rect
         width="297.81601"
         height="233.265"
         fill="#ffffff"
         transform="matrix(-0.999997,0.0026016,0.0026016,0.999997,350.752,0.164429)"
         id="rect49"
         x="0"
         y="0" />
    </clipPath>
  </defs>
</svg>

<svg width="332" height="346" viewBox="0 0 332 346" fill="none" xmlns="http://www.w3.org/2000/svg">
<path d="M224.47 233.759C225.391 233.756 226.316 233.673 227.235 233.507C231.643 232.707 235.524 230.053 237.884 226.228L249.925 206.705L89.6981 82.2282L62.497 87.6944C58.0012 88.5973 54.5564 91.9461 53.5086 96.4323C52.4608 100.919 54.0618 105.458 57.6888 108.278L214.727 230.429C217.531 232.611 220.972 233.768 224.47 233.759ZM245.544 207.502L235.074 224.476C233.207 227.504 230.136 229.604 226.647 230.236C223.159 230.868 219.552 229.982 216.749 227.802L59.7108 105.651C57.1214 103.636 55.9783 100.394 56.7261 97.1914C57.4748 93.9875 59.9337 91.5957 63.1451 90.9511L88.8686 85.7819L245.544 207.502Z" fill="black"/>
<path d="M220.111 208.568C220.859 208.566 221.608 208.498 222.354 208.363C225.931 207.714 229.079 205.561 230.994 202.458L240.663 186.78L113.817 88.2355L92.19 92.5809C88.5053 93.3214 85.6828 96.0655 84.8238 99.7422C83.9648 103.418 85.2778 107.137 88.2489 109.449L212.204 205.867C214.479 207.636 217.271 208.575 220.109 208.568L220.111 208.568ZM236.284 187.576L228.184 200.706C226.762 203.011 224.424 204.611 221.767 205.093C219.111 205.575 216.364 204.899 214.229 203.239L90.2734 106.821C88.339 105.316 87.484 102.895 88.043 100.5C88.6029 98.1069 90.4403 96.3205 92.8389 95.8375L112.988 91.7892L236.284 187.576Z" fill="black"/>
<path d="M265.007 13.4545L206.316 85.0082L127.187 57.1636C116.28 53.3248 104.152 56.9354 97.0832 66.1259L83.7594 83.4499L247.182 210.41L350.96 80.2307L265.007 13.4545Z" fill="#554596"/>
<mask id="mask0_382_305" style="mask-type:luminance" maskUnits="userSpaceOnUse" x="83" y="13" width="268" height="198">
<path d="M265.007 13.4545L206.316 85.0082L127.187 57.1636C116.28 53.3248 104.152 56.9354 97.0832 66.1259L83.7594 83.4499L247.182 210.41L350.96 80.2307L265.007 13.4545Z" fill="white"/>
</mask>
<g mask="url(#mask0_382_305)">
<path d="M90.0122 68.7442L276.073 196.965L274.204 199.705L88.1429 71.4842L90.0122 68.7442Z" fill="black"/>
<path d="M129.748 44.2221L149.673 71.6733L216.739 112.764L299.186 36.0004" fill="#554596"/>
<path d="M216.946 114.836L300.309 37.2192L298.062 34.7815L216.532 110.692L150.814 70.427L131.082 43.2435L128.412 45.2006L148.532 72.9197L216.946 114.836Z" fill="black"/>
<path d="M175.341 71.1845L179.452 103.423L176.173 103.845L172.063 71.6067L175.341 71.1845Z" fill="black"/>
<path d="M192.274 67.5443L198.111 113.324L194.832 113.746L188.995 67.9666L192.274 67.5443Z" fill="black"/>
<path d="M202.343 59.6874L222.531 124.701L219.376 125.69L199.188 60.6771L202.343 59.6874Z" fill="black"/>
<path d="M202.334 56.3996L245.477 108.919L242.927 111.035L199.785 58.5153L202.334 56.3996Z" fill="black"/>
<path d="M212.068 36.7268L255.211 89.2467L252.661 91.3618L209.519 38.842L212.068 36.7268Z" fill="black"/>
<path d="M226.826 21.8178L269.968 74.3377L267.419 76.4529L224.277 23.933L226.826 21.8178Z" fill="black"/>
<path d="M241.608 6.88338L284.751 59.4032L282.201 61.5184L239.059 8.99857L241.608 6.88338Z" fill="black"/>
<path d="M242.102 111.558C239.735 111.565 237.812 109.641 237.805 107.262C237.799 104.883 239.713 102.95 242.08 102.944C244.447 102.937 246.371 104.861 246.377 107.24C246.383 109.619 244.469 111.552 242.102 111.558Z" fill="#554596"/>
<path d="M220.031 126.742C217.664 126.748 215.74 124.824 215.734 122.445C215.728 120.066 217.642 118.133 220.009 118.127C222.376 118.121 224.3 120.044 224.306 122.423C224.312 124.802 222.398 126.735 220.031 126.742Z" fill="#554596"/>
<path d="M196.049 114.923C193.682 114.929 191.759 113.005 191.752 110.626C191.746 108.247 193.66 106.314 196.027 106.308C198.394 106.301 200.318 108.225 200.324 110.604C200.33 112.983 198.416 114.916 196.049 114.923Z" fill="#554596"/>
<path d="M177.435 105.163C175.068 105.17 173.144 103.246 173.138 100.867C173.132 98.4882 175.045 96.5547 177.412 96.5485C179.779 96.5424 181.703 98.4659 181.709 100.845C181.716 103.224 179.802 105.157 177.435 105.163Z" fill="#554596"/>
</g>
<g clip-path="url(#clip0_382_305)">
<path d="M264.88 37.8536L265.261 11.7071C265.328 7.09125 262.741 3.11028 258.507 1.31807C254.275 -0.474976 249.632 0.445774 246.393 3.71845C242.1 8.0562 242.118 15.0963 246.434 19.4108L264.88 37.8536ZM254.121 3.75566C255.252 3.75271 256.323 3.99744 257.224 4.37967C259.548 5.36369 262.012 7.7926 261.956 11.6575L261.688 29.9754L248.766 17.055C245.742 14.032 245.729 9.09996 248.737 6.06045C250.398 4.38248 252.335 3.7603 254.121 3.75566Z" fill="black"/>
<path d="M287.799 44.9658C290.601 44.9585 293.319 43.8509 295.45 41.7381C298.72 38.4961 299.655 33.8357 297.891 29.5735C296.757 26.8371 294.632 24.708 291.905 23.578C289.178 22.4488 286.177 22.4542 283.455 23.5925L259.435 33.6405L283.315 44.0214C284.782 44.6597 286.303 44.9697 287.799 44.9658ZM287.678 26.0592C288.683 26.0566 289.688 26.2533 290.645 26.6503C292.556 27.4419 294.044 28.9331 294.839 30.8506C296.317 34.42 294.925 37.5931 293.13 39.3736C291.334 41.1525 288.158 42.5079 284.627 40.973L267.897 33.7007L284.726 26.6608C285.677 26.2621 286.677 26.0618 287.678 26.0592Z" fill="black"/>
</g>
<path d="M12.9075 119.144L313.28 343.997M17.8822 100.925L191.307 230.187" stroke="#554596" stroke-width="3"/>
<defs>
<clipPath id="clip0_382_305">
<rect width="297.816" height="233.265" fill="white" transform="matrix(-0.999997 0.0026016 0.0026016 0.999997 350.752 0.164429)"/>
</clipPath>
</defs>
</svg>
